X:1
T:Otto Langey 061
T:Otto Langey 061
T:Otto Langey
T:Digital Conversion: Christophe Budiman
C:Otto Langey
L:1/8
Q:1/4=144
M:4/4
K:G
V:1 treble nm="Flute" snm="Fl."
V:1
"^Allegro" .e(BG)(B e)(Bg)(B | f)(BF)(B ^d)(Ba)(B | g)(Be)(B g)(Be)(B | f)(B^d)(B f)(Bd)(B | %4
 e) z E(F G)(^AB)(^d | e)(fg)(^a b)(^d'e')(f' | f')(^d'e')(^a b)(fg)(^d | e)(^AB)(F G)(^DE)(G | %8
 B)(fb)(f c')(fb)(f | B)(fa)(f c')(fa)(f | (B3) B/)e/ fefg | e4 z4 |] %12

